public/Icons/folder-com.svg

<svg fill="none" height="800" viewBox="0 0 24 24" width="800" xmlns="http://www.w3.org/2000/svg"><path d="m3 8.2c0-1.12011 0-1.68016.21799-2.10798.19174-.37633.4977-.68229.87403-.87403.42782-.21799.98788-.21799 2.10798-.21799h3.47452c.48918 0 .73378 0 .96398.05526.204.04899.3991.1298.5781.23946.2018.12368.3748.29663.7207.64254l.1254.12548c.3459.34591.5189.51886.7207.64254.179.10966.3741.19047.5781.23946.2302.05526.4748.05526.964.05526h3.4745c1.1201 0 1.6802 0 2.108.21799.3763.19174.6823.4977.874.87403.218.42782.218.98788.218 2.10798v5.6c0 1.1201 0 1.6802-.218 2.108-.1917.3763-.4977.6823-.874.874-.4278.218-.9879.218-2.108.218h-11.6c-1.12011 0-1.68016 0-2.10798-.218-.37633-.1917-.68229-.4977-.87403-.874-.21799-.4278-.21799-.9879-.21799-2.108z" stroke="#183331" stroke-linecap="round" stroke-linejoin="round" stroke-width="2"/></svg>

<!DOCTYPE svg PUBLIC "-//W3C//DTD SVG 1.1//EN" "http://www.w3.org/Graphics/SVG/1.1/DTD/svg11.dtd">
<!-- Uploaded to: SVG Repo, www.svgrepo.com, Transformed by: SVG Repo Mixer Tools -->
<svg width="800px" height="800px" viewBox="0 0 24 24" fill="none" xmlns="http://www.w3.org/2000/svg">
<g id="SVGRepo_bgCarrier" stroke-width="0"/>
<g id="SVGRepo_tracerCarrier" stroke-linecap="round" stroke-linejoin="round"/>
<g id="SVGRepo_iconCarrier"> <path d="M3 8.2C3 7.07989 3 6.51984 3.21799 6.09202C3.40973 5.71569 3.71569 5.40973 4.09202 5.21799C4.51984 5 5.0799 5 6.2 5H9.67452C10.1637 5 10.4083 5 10.6385 5.05526C10.8425 5.10425 11.0376 5.18506 11.2166 5.29472C11.4184 5.4184 11.5914 5.59135 11.9373 5.93726L12.0627 6.06274C12.4086 6.40865 12.5816 6.5816 12.7834 6.70528C12.9624 6.81494 13.1575 6.89575 13.3615 6.94474C13.5917 7 13.8363 7 14.3255 7H17.8C18.9201 7 19.4802 7 19.908 7.21799C20.2843 7.40973 20.5903 7.71569 20.782 8.09202C21 8.51984 21 9.0799 21 10.2V15.8C21 16.9201 21 17.4802 20.782 17.908C20.5903 18.2843 20.2843 18.5903 19.908 18.782C19.4802 19 18.9201 19 17.8 19H6.2C5.07989 19 4.51984 19 4.09202 18.782C3.71569 18.5903 3.40973 18.2843 3.21799 17.908C3 17.4802 3 16.9201 3 15.8V8.2Z" stroke="#183331" stroke-width="2" stroke-linecap="round" stroke-linejoin="round"/> </g>
</svg>
